optimized/solid/translate.svg

<svg xmlns="http://www.w3.org/2000/svg" viewBox="0 0 20 20" fill="currentColor" aria-hidden="true">
  <path fill-rule="evenodd" d="M7.00001 2C7.55229 2 8.00001 2.44772 8.00001 3V4H8.73223C8.744 3.99979 8.75581 3.99979 8.76765 4H11C11.5523 4 12 4.44772 12 5C12 5.55228 11.5523 6 11 6H9.57801C9.21635 7.68748 8.63076 9.29154 7.85405 10.7796C8.14482 11.1338 8.44964 11.476 8.76767 11.8055C9.15124 12.2028 9.14007 12.8359 8.74272 13.2195C8.34537 13.603 7.7123 13.5919 7.32873 13.1945C7.13962 12.9986 6.95468 12.7987 6.77405 12.5948C5.88895 13.9101 4.84387 15.1084 3.66692 16.1618C3.2554 16.5301 2.6232 16.4951 2.25487 16.0836C1.88655 15.672 1.92157 15.0398 2.3331 14.6715C3.54619 13.5858 4.60214 12.3288 5.4631 10.9389C4.90663 10.1499 4.40868 9.31652 3.97558 8.44503C3.7298 7.95045 3.93148 7.35027 4.42606 7.10449C4.92064 6.8587 5.52083 7.06039 5.76661 7.55497C6.00021 8.02502 6.25495 8.48278 6.52961 8.92699C6.947 7.99272 7.28247 7.01402 7.52698 6H3.00001C2.44772 6 2.00001 5.55228 2.00001 5C2.00001 4.44772 2.44772 4 3.00001 4H6.00001V3C6.00001 2.44772 6.44772 2 7.00001 2ZM13 8C13.3788 8 13.725 8.214 13.8944 8.55279L16.8854 14.5348C16.8919 14.5471 16.8982 14.5596 16.9041 14.5722L17.8944 16.5528C18.1414 17.0468 17.9412 17.6474 17.4472 17.8944C16.9532 18.1414 16.3526 17.9412 16.1056 17.4472L15.382 16H10.618L9.89444 17.4472C9.64745 17.9412 9.04677 18.1414 8.5528 17.8944C8.05882 17.6474 7.85859 17.0468 8.10558 16.5528L9.09589 14.5722C9.10187 14.5596 9.1081 14.5471 9.11458 14.5348L12.1056 8.55279C12.275 8.214 12.6212 8 13 8ZM11.618 14H14.382L13 11.2361L11.618 14Z" clip-rule="evenodd"/>
</svg>

<svg xmlns="http://www.w3.org/2000/svg" viewBox="0 0 20 20" fill="currentColor" aria-hidden="true">
  <path fill-rule="evenodd" d="M7 2a1 1 0 011 1v1h3a1 1 0 110 2H9.578a18.87 18.87 0 01-1.724 4.78c.29.354.596.696.914 1.026a1 1 0 11-1.44 1.389c-.188-.196-.373-.396-.554-.6a19.098 19.098 0 01-3.107 3.567 1 1 0 01-1.334-1.49 17.087 17.087 0 003.13-3.733 18.992 18.992 0 01-1.487-2.494 1 1 0 111.79-.89c.234.47.489.928.764 1.372.417-.934.752-1.913.997-2.927H3a1 1 0 110-2h3V3a1 1 0 011-1zm6 6a1 1 0 01.894.553l2.991 5.982a.869.869 0 01.02.037l.99 1.98a1 1 0 11-1.79.895L15.383 16h-4.764l-.724 1.447a1 1 0 11-1.788-.894l.99-1.98.019-.038 2.99-5.982A1 1 0 0113 8zm-1.382 6h2.764L13 11.236 11.618 14z" clip-rule="evenodd"/>
</svg>
